/* XPM */
static char *texture[] = {
"32 32 6 1 ",
"  c #000000",
". c #4A311C",
"X c #5A3B22",
"o c #6A472A",
"O c #7A5533",
"+ c #8A6440",
"oXooX.oooXOooOXoooXXXoX+OOoOoO+X",
"OOoX.OX..ooOo.+OOOOoO.+.oooXoXo.",
"Xo     Oo+oOoOo++OOoXOOoo.o.oXoX",
"XO X+..OooO.oXoooOoooXOooOO+OooO",
"o.    oOXooXX.OXXXooO.XOO.o++XOX",
".O +oO+OOX.Xo..o.XoXOXooO.O.+oOo",
"oo     .OO.O.ooXXoOXX+X.++XoOXX.",
"XooOoXoXooXo+oXo..OOoooOoOOXOXoO",
"+oXXOXXooOXo+XooXXXoXooXOOoXooOo",
".X+oo.OOXX.Xoo..XO+OooOOoO+oXO+X",
"oOO.OXX.ooXOX++X..ooOoXX+OoXoOoX",
"oO.oOoo+XOOO.ooXOXoX.XooOXXOoOoo",
".OOOXooXoOXo...X+ooXoX.XXOooXo.X",
"+oXoOOoX..OOOOXo..o.ooOoXoX+++oX",
"XOoOXoOXOXo.X.XoOOOX+ooOXXoXOOo.",
"OO+X+ooXXooXooXoX.Xoo.O.+.XXo.XO",
"O..Xoo+oXX..OOoXOXoO.oXo++OOoOOO",
"oOXo+OOXooOXoOoX.oXoo.+OXX+.XoO.",
"oOoooOoXoO.ooXX.OooOOo.oXo.OOXO.",
"XoXooOOOXXOo.oXooXOOXXoX+o.XXXoO",
"oo+ooOooOX.XXOX..Oo+XXXOoO+o.OOo",
"oOo.+oXOOoO+oo+XOXXO.OO+Ooo.OOXX",
"+XXXOOXoooXO..oOoOOo++OXXoooOo++",
".X+.oXooO+OXo+oo+o.oX.OOo+X..oXo",
"+oO.OXOoooXOoXXoXXoO.oXoOXO.X.Xo",
"+OXooX.O+X.OX.+XXoOoXOoXOXoXoOX+",
"oOooo.XXXXXO.X.oOooOoOOX.XXOO.oo",
"oX+OOO+OOo.XXO.Oo.oXoXXOoOXoXXoO",
"oOX.OXXo+ooX.oXoXXX.OoOOOoXoXXOO",
"OOoOoOXX.o+oXoXoOOooX..oOOXOooOo",
"oOXX.XO.oXo.ooOXXoX+oOooXoXoo+oO",
".+OXooXX.XXXXOXo.o.XOooooX.oX.Oo"
};
