/* XPM */
static char *texture[] = {
"32 32 6 1 ",
"  c #000000",
". c #4A311C",
"X c #5A3B22",
"o c #6A472A",
"O c #7A5533",
"+ c #8A6440",
"OXXOXX+oOO..XOO.o.oOoXXOo.X.oXoX",
"+O.O.OoOoOooXXo+oXXXooXooX.oXo.o",
"XO     OoX+XOO++ooOOXOoooooXoXoO",
"O. .X.oX.XoX.ooO++oXXOooOoooXOOX",
"oo     o+OXoOXXXo+OOX+XXXOXOXO+o",
"oOXoX. o.oooOXOoXo.oX+.oooOooOOO",
"+O     ooXoX.oXXooXO+o+O.O+XOo+o",
"Oo.oo.XXOOoOooo+oXoOOX+oO+OXo.X.",
"X.O+OOooo.OXOXoooo+OXoOX.oooo.oO",
"OOXXX+OoXO++OX+OOX+OoooXOOOoOoOO",
"Oo+Xoo+oXXooXooo..OoOXOOo+Xo+XXO",
"XO..oXOoo.o.oXXX+XO.oooXoXoXoXXO",
"oOOX+o.oO.ooXoOO+o.OoooooO+ooo+X",
"..O+oXXoOoO+Xo.++o+OOOooXoXoXOo.",
"o+oX...Ooo.oXOoX+..oOXXXooo.XoXo",
"+o+.X.OoXXO.O.+oo..oOooXOoOOOXoO",
"ooo.oOOoOoOOoooO.X+O+o+OXO++oOO.",
"X++X.Oo+O.oo.OoooO+XOoo.XOOoOXOO",
"OoXOOOOOo..oOXooooXoX++oXOoO.OoO",
"..OOXoOoo..+o.X.O.oo+XXoO+o.O.oX",
"Ooo.X+..ooXXoXXXOOOoooX+XOoXOoXX",
"oOOOooooo+O.X.X.OoXXoX.XoXooOXXo",
"ooXO.oXX.+o++XOXo+OOO.O.oOoo+X.O",
"o+oXOXOXoXOXX.+Oo.Xo.X.oXXOoXOOO",
"+XooOX+OXoooo.+o+OXXXXXoXoOOo+XO",
"OOoOOXOOooooo+OOo+XXOO.OooXX+.O.",
"o.oOoo.OXooo+oXXXoO+oO+XX+OOoX+.",
"oX.Oooo.o.XoOXo.OOXOXoXooXoXXO++",
"+.XXXoOoOo.o+XoOOoXooXO.X.oXoOOO",
"+X+oX+X.o.XX.oOoOooXOXOooOoXO.Xo",
"ooo.XO.XoX.oo+oOoooooOOo.X.oXXOO",
"oXOOO+XOo.XoOXXOO.XoOoooOOX+XXO."
};
