/* XPM */
static char *texture[] = {
"32 32 6 1 ",
"  c #000000",
". c #4A311C",
"X c #5A3B22",
"o c #6A472A",
"O c #7A5533",
"+ c #8A6440",
"oO..oXoOoo..oOX.o.+OXOoXOo++XOXo",
"XXo.OOOXX.XX.OoOXXOXooooOoo.OXoO",
"OO XoO Oooooo..o.OoooOoOooOooo+o",
"+X oXO XoXooo+.oO+oXoX.X+XOXoO+o",
"o. o O oOooOoo.OoOOXXoXooXXoXoO.",
"OX  o  oXOOoOX.ooOOO.OoXo.OO.ooo",
"o+ Xoo OooooXo+o.oO.O.o.OoOo++O+",
"oOOoo.ooo+oOoOOXO+OXoo.oXo.o++XO",
".oOXOOoX.OoXXXooooX.oXoX.Xoo+ooo",
"OO.o+OXooOOo+O+.o.Oo.oXXXO+.XXoO",
"ooooo+.X.OOXXOoOX+OoO.XoOX.X.OoX",
"OOoo.+.o+X+XOOOOoO+ooooO.XoOoXX.",
"oO+OO.oXO+ooOooo.o..ooOoo.oOoOOo",
"oXooOX+OX..OXOoooo.Xoooo.oXo+OX+",
"oXoXXO+oXoo+oo+OoOXO.o+OoOOXXOoO",
"oXX..XOXoo.XOOo.ooX.oOo+oXoXOOOo",
"XXOXo+OoooX.oOXoXXoooX.oOXo.Xooo",
"OOXO+OO.OXoXOoo.+XX.OOXo.+OOX.oO",
"+.Xooo+oOO+OooOOoXoXoOOoXoOoX.oO",
".XOo.ooO+O.X++OXo.oX..oXX+XoOXoX",
".XXo.OoooooXXXooX+oOoOXoooOOoOo.",
"XO+OOooooX+X.O.oXXOOo..X+oXOoo.o",
"oXXOooO+ooXoXooooOooo+Oo.X+XoXO+",
"X.o+oXOXoOoOOo.+XXOXOo+XXOOOooOX",
".OOoO++oo.oOXX..o..X.+ooXoXoo+Oo",
"oXOoXXooXOXXo+oXO+ooOOo.o.O..Xoo",
"o+o.oXoXooXoo.OXXO..+.XX.OOX.O.+",
"OoOOOO.+o+ooOoooXXoXoOoOoo.XXXO.",
".OXoXoX.OoXoXOOooXO..XOooo+.OoXO",
"oXooX+oOoXoOXXOooO..+X.++Xo.OX.o",
"XOXXo+XX.ooO+Oo+OXoOoXOXoXoXOo+o",
"Xo.O+Xo.+XO.o+OoXXO+oXXoooXOXo+."
};
