/* XPM */
static char *texture[] = {
"32 32 6 1 ",
"  c #000000",
". c #4A311C",
"X c #5A3B22",
"o c #6A472A",
"O c #7A5533",
"+ c #8A6440",
"oooX.oXOooooXoXO.O.oXoO..Oo.++.o",
"XXoXo.XOooooo.O++ooooo.XooOo.Ooo",
"Xo O.o o.XXo.oXXo+o+X+oXOO.XOXX.",
".o Xo  OOoXoooX+OXXOX+ooOXXXooXO",
"oX + o +OooOOoXoOo.OOOOOoOo.oX+o",
"oo  O. oXoX.XoOo+o.ooXoXXX+.oXXo",
"XO oXo OXoOOXoOooo+oooOXooXXXoX.",
"OX+ooOOXXoOoOooXooooOXXX+o.OOOoO",
"XXOOXO.X.XXOXXXXOo.oooooOooooooo",
"OX+oOo+ooooOOX.....X.oo++O+.X+oX",
"OooXX.o++O+oX+oo.XoOOOXoO+oXoooX",
"ooXo+OXo.OoXooooXo+XooXoXXoX+XXo",
"ooo.o.XO+oXoXOXXoooo+o+oooOOXoOo",
"ooOoX.OOo+OXOoXXo...XXXOooo+XXOO",
"+ooXOOoOXoO.oXOOoo.ooo.+ooOOooOo",
"O.Ooo+XoOOoOoOooX.X.+XoX+oXOO+Xo",
"oXoOOOOXOoX.oo.ooXooo+OXOX+.X+oO",
"XX+.XoOo+OoOX.+OooXX..oO+oooOO+O",
"ooXooXXoXoX+ooooX+OooXoXXoXXOoOX",
".+oooX+oOXXoXOX.XX+Ooo.OXXoOX.O.",
"OXXXo+Oo.XXOO.X+X.XOXO.oXoOOo+o+",
"O+.XoOXOo...X+oOOoooo.OXooOOXXO.",
"OXoXOXX.Xo+.ooXX.oX.X+O+OOX.+oOX",
"Oo.X+o..OooXXooXXo..o.OOO+Xoo.O.",
"+o+.O+OoooOooooo+OXOXooO.XXoXoOo",
"XoooXoX+oo++.+.+OXOoooooo.oOOooX",
"XO.OXoo.oOoX.+.ooXooXX+XooOOOoo.",
"ooOoXoOoo.XXo.+X.XooO.+OooXX.+Oo",
"ooo.OXooOoXOooO+.oXOoOOoOo.XXOoX",
"O+XoXOOOoXO.o+XoooXoOOXoOoOXXOXX",
"XOOXOXo.oOoo.oOoOoOOXOOoOooXoXOo",
"oooXooXoXoOoX+oX.oXOOXo.XoOo+X.O"
};
